X: 15512
T: Glenside, The
R: polka
M: 2/4
K: Edorian
|:B>d BA|FA DA|B>d BA|B/c/d ed|
B>d BA|FA D>E|F/E/D/F/ AF|1 E2 E2:|2 E2 EA||
|:Be e>f|ed BA|Be e/d/e/f/|ed Bc|
d>e dB|AF D>E|F/E/D/F/ AF|1 E2 EA:|2 E2 E2||

